dist/svgs/core-ui-icons/free/cil-speaker.svg

<svg xmlns="http://www.w3.org/2000/svg" viewBox="0 0 512 512"><path d="M384 16H128a32.036 32.036 0 00-32 32v416a32.036 32.036 0 0032 32h256a32.036 32.036 0 0032-32V48a32.036 32.036 0 00-32-32zm0 448H128V48h256l.021 416z"/><path d="M256 240a96 96 0 1096 96 96.108 96.108 0 00-96-96zm0 160a64 64 0 1164-64 64.072 64.072 0 01-64 64zm0-200a64 64 0 10-64-64 64.072 64.072 0 0064 64zm0-96a32 32 0 11-32 32 32.036 32.036 0 0132-32z"/><path d="M240 320h32v32h-32z"/></svg>

<svg xmlns="http://www.w3.org/2000/svg" viewBox="0 0 512 512">
  <path fill="var(--ci-primary-color, currentColor)" d="M384,16H128A32.036,32.036,0,0,0,96,48V464a32.036,32.036,0,0,0,32,32H384a32.036,32.036,0,0,0,32-32V48A32.036,32.036,0,0,0,384,16Zm0,448H128V48H384l.021,416Z" class="ci-primary"/>
  <path fill="var(--ci-primary-color, currentColor)" d="M256,240a96,96,0,1,0,96,96A96.108,96.108,0,0,0,256,240Zm0,160a64,64,0,1,1,64-64A64.072,64.072,0,0,1,256,400Z" class="ci-primary"/>
  <path fill="var(--ci-primary-color, currentColor)" d="M256,200a64,64,0,1,0-64-64A64.072,64.072,0,0,0,256,200Zm0-96a32,32,0,1,1-32,32A32.036,32.036,0,0,1,256,104Z" class="ci-primary"/>
  <rect width="32" height="32" x="240" y="320" fill="var(--ci-primary-color, currentColor)" class="ci-primary"/>
</svg>
